X:1421
L:1/16
Q:3/8=60
M:3/8
K:G
 GB | dBG2 ge | dBG2 dB | cAFAcd | c2B2 GB | dBG2 ge | dBG2 dB | cAFAcA | G4 :: FG | AFDFAc | 
 BGDGBd | ececge |{c} d2{c}d2 FG | AFDFAc | BGDGBd | edecAF | G4 :: D2 | G2B2d2 | d2edcB | A2G2A2 | 
 B2G2D2 | G2B2d2 | d2edcB | A2G2A2 | G4 :: d2 | fdAdfd | gdBdgd | agfedc | dedcBA | G2B2d2 | 
 d2edcB | A2G2A2 | B2G2D2 | G2B2d2 | d2edcB | A2G2A2 | G4 :|

